X: 107
T: Que fait le cocu au bois
C: Gaspar van Weerbeke
%%abc-version 2.0
%%abcx-abcm2ps-target-version 5.9.1 (29 Sep 2008)
%%abc-creator hum2abc beta
%%abcx-conversion-date 2022/03/06 13:06:00
%%abc-copyright Copyright 2018, Kolb, Paul
%%abc-edited-by Zybina, Karina
%%humdrum-veritas 170292167
%%humdrum-veritas-data 3212727705
%%linebreak <none>
%%barnumbers 0
L: 1/4
M: 2/2
N: Derived from Gas0504-Que_fait_le_cocu_au_bois.krn
V: 1 clef=treble
V: 2 clef=treble-8
V: 3 clef=treble-8
K: F
[V:1] !tenuto!z4 | 
[V:2] !tenuto!z4 | 
[V:3] F2F2 | 
[V:1] z4 | 
[V:2] z4 | 
[V:3] F2D2 | 
[V:1] z4 | 
[V:2] z4 | 
[V:3] E2F2 | 
[V:1] z4 | 
[V:2] z4 | 
[V:3] G4 | 
[V:1] z4 | 
[V:2] z4 | 
[V:3] A3G | 
[V:1] z4 | 
[V:2] z4 | 
[V:3] F2F2 | 
[V:1] z4 | 
[V:2] z4 | 
[V:3] BBBA | 
[V:1] z4 | 
[V:2] z4 | 
[V:3] G2F3/G/ | 
[V:1] z4 | 
[V:2] z4 | 
[V:3] A/G/AGA- | 
[V:1] z4 | 
[V:2] z4 | 
[V:3] A/G/F2E | 
[V:1] z2F2 | 
[V:2] c2c2 | 
[V:3] F4 | 
[V:1] F2F2 | 
[V:2] c2A2 | 
[V:3] z4 | 
[V:1] D2E2 | 
[V:2] B2c2 | 
[V:3] z4 | 
[V:1] F2G2- | 
[V:2] d2e2- | 
[V:3] z4 | 
[V:1] G2A2- | 
[V:2] edcc | 
[V:3] z4 | 
[V:1] AGF2 | 
[V:2] fedc/B/ | 
[V:3] z4 | 
[V:1] F2BB | 
[V:2] A2G2 | 
[V:3] z4 | 
[V:1] B>AG2 | 
[V:2] BBBB | 
[V:3] z4 | 
[V:1] FG>FE/D/ | 
[V:2] AGc3/B/ | 
[V:3] z4 | 
[V:1] CF2E | 
[V:2] A/G/FG2 | 
[V:3] z4 | 
[V:1] F4 | 
[V:2] F2c2 | 
[V:3] z4 | 
[V:1] z2F2 | 
[V:2] c2c2 | 
[V:3] F2F2 | 
[V:1] F2F2 | 
[V:2] d2cd- | 
[V:3] F2AB- | 
[V:1] D2E2 | 
[V:2] d/A/Bc2 | 
[V:3] B/A/G/F/G2 | 
[V:1] F2G2- | 
[V:2] AAG3/F/ | 
[V:3] F2BB | 
[V:1] G2A2- | 
[V:2] E>DCC | 
[V:3] GGc2- | 
[V:1] AGFF | 
[V:2] z2zc | 
[V:3] cBA2 | 
[V:1] B2AG- | 
[V:2] deAc- | 
[V:3] G2FE | 
[V:1] GF2E | 
[V:2] c/A/Bc2 | 
[V:3] F2G2 | 
[V:1] F4 | 
[V:2] A4 | 
[V:3] F4 | 
[V:1] z4 | 
[V:2] e2e2 | 
[V:3] z4 | 
[V:1] z4 | 
[V:2] c2e2 | 
[V:3] z4 | 
[V:1] z4 | 
[V:2] f3e | 
[V:3] z4 | 
[V:1] z4 | 
[V:2] d2c2 | 
[V:3] z4 | 
[V:1] z4 | 
[V:2] z2f2- | 
[V:3] B2A2 | 
[V:1] A2A2 | 
[V:2] fe/d/c2 | 
[V:3] F2A2 | 
[V:1] F4 | 
[V:2] d4 | 
[V:3] B3B | 
[V:1] A4 | 
[V:2] z2d2 | 
[V:3] A2F2 | 
[V:1] B3A | 
[V:2] d>c d/e/f- | 
[V:3] z4 | 
[V:1] G2F2 | 
[V:2] fef2 | 
[V:3] z4 | 
[V:1] z4 | 
[V:2] e2ef | 
[V:3] A2A2 | 
[V:1] A2A2 | 
[V:2] fe/d/c2 | 
[V:3] F4 | 
[V:1] F2A2 | 
[V:2] d2cf | 
[V:3] A4 | 
[V:1] G2F2 | 
[V:2] ed2c- | 
[V:3] B2A2 | 
[V:1] E4 | 
[V:2] cB/A/G2 | 
[V:3] G4 | 
[V:1] z4 | 
[V:2] e2e2 | 
[V:3] z4 | 
[V:1] A2A2 | 
[V:2] c2f2 | 
[V:3] z4 | 
[V:1] F2A2 | 
[V:2] dc/B/Ac- | 
[V:3] z4 | 
[V:1] ccc3/B/ | 
[V:2] c/d/ef2 | 
[V:3] z2A2 | 
[V:1] A3G/F/ | 
[V:2] F/G/A/B/c2- | 
[V:3] A2F2 | 
[V:1] E2z2 | 
[V:2] cB/A/d2- | 
[V:3] A2G2- | 
[V:1] z4 | 
[V:2] dc/d/ e/d/c/B/ | 
[V:3] GFE2 | 
[V:1] z2AA | 
[V:2] A2cc | 
[V:3] F2FF | 
[V:1] AAFE/D/ | 
[V:2] cABB | 
[V:3] F2D2 | 
[V:1] C2F2 | 
[V:2] G2c2 | 
[V:3] E2F2 | 
[V:1] E2zE | 
[V:2] z2cc | 
[V:3] G4 | 
[V:1] CF2E | 
[V:2] cAB3/c/ | 
[V:3] z4 | 
[V:1] F2z2 | 
[V:2] dddd | 
[V:3] FFFD | 
[V:1] z4 | 
[V:2] BAde | 
[V:3] EFG2 | 
[V:1] FFFD | 
[V:2] c>cdf | 
[V:3] A>AFF | 
[V:1] EFG2 | 
[V:2] edz2 | 
[V:3] z2B3/B/ | 
[V:1] z2A3/G/ | 
[V:2] e>dcc | 
[V:3] GGz2 | 
[V:1] FFz2 | 
[V:2] c>cdd | 
[V:3] A/ A/ A/ A/FF | 
[V:1] B>AGG | 
[V:2] z2d/ d/ d/ d/ | 
[V:3] z2B/ B/ B/ B/ | 
[V:1] z2B/ B/ B/ B/ | 
[V:2] eez2 | 
[V:3] GGz2 | 
[V:1] GGc3/B/ | 
[V:2] eefg | 
[V:3] c>BAG | 
[V:1] AGA3/G/ | 
[V:2] c/d/eA3/B/ | 
[V:3] Fc2c- | 
[V:1] EF2E | 
[V:2] c2c2- | 
[V:3] cB/A/G2 | 
[V:1] F4 |]  
[V:2] c4 |]  
[V:3] F4 |]  


